X:147
M:4/4
L:1/4
K:G
G A B c | d d d2 | c d e2 | d3 z | d d c c | B B A2 | B c A2 | G3 z | B A B c | (d3 c) | B2 z2 | B A B c | (d3 c) | B2 z2 | z4 | !sintro!G2 e2 | d B A2 | G4 !eintro!|]
